src/components/home/hotplugicon.svg

<svg viewBox="0 0 96 96" xmlns="http://www.w3.org/2000/svg" xmlns:xlink="http://www.w3.org/1999/xlink" id="Icons_PluggedUnplugged_M" overflow="hidden"><g id="Icons"><path d="M44.343 54.657C44.7402 55.0407 45.3733 55.0297 45.757 54.6324 46.1313 54.2449 46.1313 53.6305 45.757 53.243L38.65 46.136 46.136 38.651 53.243 45.757C53.6403 46.1407 54.2733 46.1297 54.657 45.7324 55.0313 45.3449 55.0313 44.7305 54.657 44.343L47.55 37.237 53 31.787 45.929 24.716C40.36 19.1361 31.4175 18.8325 25.483 24.022L23.317 21.783C18.5986 16.9252 12.1191 14.1776 5.347 14.163L2 14.163 2 16.163 5.347 16.163C11.5772 16.177 17.5381 18.7049 21.879 23.174L24.066 25.435C18.845 31.3691 19.1295 40.3377 24.716 45.929L31.787 53 37.236 47.55ZM26.13 44.515C21.0531 39.4381 21.0531 31.2069 26.13 26.13 31.2069 21.0531 39.4381 21.0531 44.515 26.13L50.172 31.787 31.787 50.172Z" stroke="#000000" stroke-width="1.33333"/><path d="M90.707 80C84.7379 80.0118 79.0004 77.6912 74.718 73.533L72.141 71.041C77.3196 65.1022 77.0164 56.1679 71.447 50.594L64.376 43.523 43.163 64.737 50.234 71.808C55.8213 77.4051 64.7988 77.6894 70.729 72.457L73.329 74.971C77.9836 79.4902 84.2194 82.0124 90.707 82L94 82 94 80ZM51.648 70.393 45.991 64.737 64.376 46.352 70.033 52.009C75.1374 57.058 75.1823 65.2891 70.1333 70.3935 65.0843 75.4979 56.8532 75.5428 51.7488 70.4938 51.715 70.4604 51.6814 70.4268 51.648 70.393Z" stroke="#000000" stroke-width="1.33333"/></g></svg>

<svg viewBox="0 0 96 96" xmlns="http://www.w3.org/2000/svg" overflow="hidden"><g stroke="#000" stroke-width="1.333"><path d="M44.343 54.657a1 1 0 001.414-1.414l-7.107-7.107 7.486-7.485 7.107 7.106a1 1 0 001.414-1.414l-7.107-7.106 5.45-5.45-7.071-7.071c-5.569-5.58-14.512-5.884-20.446-.694l-2.166-2.239a25.127 25.127 0 00-17.97-7.62H2v2h3.347a23.12 23.12 0 0116.532 7.011l2.187 2.261c-5.221 5.934-4.936 14.903.65 20.494L31.787 53l5.449-5.45zM26.13 44.515c-5.077-5.077-5.077-13.308 0-18.385 5.077-5.077 13.308-5.077 18.385 0l5.657 5.657-18.385 18.385zM90.707 80a22.887 22.887 0 01-15.989-6.467l-2.577-2.492c5.179-5.939 4.875-14.873-.694-20.447l-7.071-7.071-21.213 21.214 7.071 7.071c5.587 5.597 14.565 5.881 20.495.649l2.6 2.514A24.879 24.879 0 0090.707 82H94v-2zm-39.059-9.607l-5.657-5.656 18.385-18.385 5.657 5.657c5.104 5.049 5.15 13.28.1 18.385-5.049 5.104-13.28 5.149-18.384.1a11.975 11.975 0 01-.101-.101z"/></g></svg>
